fruit-pear.svg

<svg fill="currentColor" viewBox="0 0 24 24"><path d="M18 16c0 3.31-2.69 6-6 6s-6-2.69-6-6c0-3 2-3 2-6 0-1.44.75-2.78 2-3.5.4-.23.82-.38 1.25-.46V5c0-.37-.08-.58-.22-.72C10.9 4.14 10.63 4 10 4V2.5c.88 0 1.6.23 2.09.72s.66 1.16.66 1.78v1.04c.43.08.86.23 1.25.46 1.25.72 2 2.06 2 3.5 0 3 2 3 2 6"/></svg>

<svg  viewBox="0 0 24 24" fill="currentColor"><path  d="M18 16C18 19.31 15.31 22 12 22C8.69 22 6 19.31 6 16C6 13 8 13 8 10C8 8.56 8.75 7.22 10 6.5C10.4 6.27 10.82 6.12 11.25 6.04V5C11.25 4.63 11.17 4.42 11.03 4.28C10.9 4.14 10.63 4 10 4V2.5C10.88 2.5 11.6 2.73 12.09 3.22C12.58 3.71 12.75 4.38 12.75 5V6.04C13.18 6.12 13.61 6.27 14 6.5C15.25 7.22 16 8.56 16 10C16 13 18 13 18 16Z"/></svg>
